X:1
T:[ID 8-11a]
T:[ID 8-11a]
T:Bezeichnung standardisiert: Menuett Menuet 7. In dieser Quelle auch als: Menuetto
T:Urheber unbekannt Datum in der hier transkribierten schriftlichen Quelle: 1792
C:Urheber unbekannt
C:Datum in der hier transkribierten schriftlichen Quelle: 1792
L:1/8
M:3/4
K:G
V:1 treble 
V:1
 g2 g2 g2 | g2 bg d2 | d4 BG | F2 AF D2 | G2 B2 d2 | d2 gdBd | c2 c2 B2 | A6 :: d2 d2 d2 | %9
 ^c2 ec A2 | g2 f2 e2 | d4 =c2 | Bd g2 g2 | f2 af d2 | c2 B2 A2 | G6 :| %16

